remix/Finance/coupon-5-fill.svg

<svg viewBox="0 0 24 24" fill="currentColor" xmlns="http://www.w3.org/2000/svg"><path d="M21.0049 13.9997V20.9997C21.0049 21.5519 20.5572 21.9997 20.0049 21.9997H4.00488C3.4526 21.9997 3.00488 21.5519 3.00488 20.9997V13.9997C4.10945 13.9997 5.00488 13.1042 5.00488 11.9997C5.00488 10.8951 4.10945 9.99966 3.00488 9.99966V2.99966C3.00488 2.44738 3.4526 1.99966 4.00488 1.99966H20.0049C20.5572 1.99966 21.0049 2.44738 21.0049 2.99966V9.99966C19.9003 9.99966 19.0049 10.8951 19.0049 11.9997C19.0049 13.1042 19.9003 13.9997 21.0049 13.9997ZM9.00488 5.99966V7.99966H15.0049V5.99966H9.00488ZM9.00488 15.9997V17.9997H15.0049V15.9997H9.00488Z"/></svg>

<svg viewBox="0 0 24 24" xmlns="http://www.w3.org/2000/svg"><path fill="none" d="M0 0h24v24H0Z"/><path d="M21 14v7 0c0 .55-.45 1-1 1H4v0c-.56 0-1-.45-1-1v-7 0c1.1 0 2-.9 2-2 0-1.11-.9-2-2-2V3v0c0-.56.44-1 1-1h16v0c.55 0 1 .44 1 1v7 0c-1.11 0-2 .89-2 2 0 1.1.89 2 2 2ZM9 6v2h6V6H9Zm0 10v2h6v-2H9Z"/></svg>
